resources/icons/20px/bug.svg

<svg width="20" height="20" viewBox="0 0 20 20" fill="none" xmlns="http://www.w3.org/2000/svg">
<path fill-rule="evenodd" clip-rule="evenodd" d="M6.00628 4.27217C6.12352 2.13619 7.86674 0 10 0C12.1333 0 13.8765 2.13619 13.9937 4.27217C14.4844 4.71013 14.9027 5.22755 15.2283 5.80422L17 5.01679V3C17 2.44772 17.4477 2 18 2C18.5523 2 19 2.44772 19 3V5.66667C19 6.06186 18.7673 6.41998 18.4061 6.58048L15.9069 7.69126C15.9681 8.03494 16 8.38874 16 8.75V10H19C19.5523 10 20 10.4477 20 11C20 11.5523 19.5523 12 19 12H16V12.5C16 13.1039 15.9108 13.687 15.7448 14.2367L18.4061 15.4195C18.7673 15.58 19 15.9381 19 16.3333V19C19 19.5523 18.5523 20 18 20C17.4477 20 17 19.5523 17 19V16.9832L14.853 16.029C13.762 17.5266 11.9947 18.5 10 18.5C8.00531 18.5 6.23796 17.5266 5.14702 16.029L3 16.9832V19C3 19.5523 2.55228 20 2 20C1.44772 20 1 19.5523 1 19V16.3333C1 15.9381 1.23273 15.58 1.59386 15.4195L4.25519 14.2367C4.08922 13.687 4 13.1039 4 12.5V12H1C0.447715 12 0 11.5523 0 11C0 10.4477 0.447715 10 1 10H4V8.75C4 8.38874 4.03193 8.03494 4.09311 7.69126L1.59386 6.58048C1.23273 6.41998 1 6.06186 1 5.66667V3C1 2.44772 1.44772 2 2 2C2.55228 2 3 2.44772 3 3V5.01679L4.77171 5.80422C5.09732 5.22755 5.51558 4.71013 6.00628 4.27217ZM6 11V12.5C6 14.7091 7.79086 16.5 10 16.5C12.2091 16.5 14 14.7091 14 12.5V11V8.75C14 6.54086 12.2091 4.75 10 4.75C7.79086 4.75 6 6.54086 6 8.75V11Z" fill="#111418"/>
</svg>

<svg xmlns="http://www.w3.org/2000/svg" viewBox="0 0 20 20">
  <path d="M6.006 4.272C6.124 2.136 7.866 0 10 0c2.133 0 3.877 2.136 3.994 4.272.49.438.909.956 1.234 1.532L17 5.017V3a1 1 0 1 1 2 0v2.667a1 1 0 0 1-.594.913l-2.5 1.111Q16 8.208 16 8.75V10h3a1 1 0 1 1 0 2h-3v.5c0 .604-.09 1.187-.255 1.737l2.661 1.182a1 1 0 0 1 .594.914V19a1 1 0 1 1-2 0v-2.017l-2.147-.954A6 6 0 0 1 10 18.5a6 6 0 0 1-4.853-2.471L3 16.983V19a1 1 0 1 1-2 0v-2.667a1 1 0 0 1 .594-.913l2.661-1.183A6 6 0 0 1 4 12.5V12H1a1 1 0 1 1 0-2h3V8.75q0-.542.093-1.059l-2.5-1.11A1 1 0 0 1 1 5.666V3a1 1 0 0 1 2 0v2.017l1.772.787a6 6 0 0 1 1.234-1.532M6 11v1.5a4 4 0 0 0 8 0V8.75a4 4 0 0 0-8 0z"/>
</svg>
